X:18289
T:Vier Lndler nach Franz Raudner
B:"Spielheft fr Okarina", Volker Derschmidt, Obersterreichisches Volksliedwerk, Linz
Z:abc transcription Simon Wascher
N:please mail errors to simon.wascher@chello.at
M:3/4
L:1/4
K:G
P:1
z/d/d/|e/d/B/e/d/B/|e/d/B/e/d/B/|c/d/ff|f>de/d/|
c/d/ff|f>de/d/|B/d/gg|g2d/d/|
e/d/B/e/d/B/|e/d/B/e/d/B/|c/d/ff|f>de/d/|
c/d/ff|f>de/f/|gf/g/d/B/|Gz/:|
P:2
|:e/d/c/|Bdg|Bdg|cdf|c>ed/^c/|
d2f/a/|d2f/a/|d2g/b/|d>ed/c/|
Bdg|Bdg|cdf|c>ed/^c/|
d2f/a/|d2f|gf/g/d/B/|Gz/:|z/||
P:3
|:d/c/|B/d/d>d|e/d/B/d/g|B/d/d>d|e/d/c/d/f|
f/a/a>g|gf/^e/f/=e/|d/f/f>e|ed/c/B|
B/d/d>d|e/d/B/d/g|B/d/d>d|e/d/c/d/f|
f/a/a>g|gf/^e/f/=e/|dc/f/c/f/|gz:|
P:4
|:d/c/|B/c/d/e/f/g/|ba>g|fd/f/d/f/|c>dd/g/|
fd/f/d/f/|c>dd/f/|gd/g/d/g/|B2d/c/|
B/c/d/e/f/g/|ba>g|fd/f/d/f/|c>dd/g/|
fd/f/d/f/|c>de/f/|g/b/d/g/B/d/|Gz:|
